X: 19634
T: Jaybird
R: reel
M: 4/4
K: Dmajor
|:ag|f2d2 f2d2|fefg a2gf|e2c2 e2c2|ecef g2ag|
f2d2 f2d2|fefg a2Bc|d2A2 ABAG|F2D2D2:|
|:EF|G2 B2 B2 AG|FEFG A2cd|e2e2 efed|c2A2A2 EF|
G2 B2 B2 AG|FEFG A2 Bc|d2A2 ABAG|F2D2D2:|

